Newaita-dark/.places-blue/16/folder-drag-accept.svg

<svg xmlns="http://www.w3.org/2000/svg" xmlns:xlink="http://www.w3.org/1999/xlink" width="16px" height="16px" viewBox="0 0 16 16" version="1.1">
<defs>
<linearGradient id="linear0" gradientUnits="userSpaceOnUse" x1="254" y1="233.5" x2="254" y2="254.667007" gradientTransform="matrix(0.0312525,0,0,0.0312525,0,6.7195)">
<stop offset="0" style="stop-color:rgb(0%,0%,0%);stop-opacity:0.275;"/>
<stop offset="1" style="stop-color:rgb(0%,0%,0%);stop-opacity:0;"/>
</linearGradient>
<radialGradient id="radial0" gradientUnits="userSpaceOnUse" cx="450.908997" cy="189.578995" fx="450.908997" fy="189.578995" r="21.167" gradientTransform="matrix(0,-0.039065,-0.07032,0,27.057501,31.797501)">
<stop offset="0" style="stop-color:rgb(0%,0%,0%);stop-opacity:0.314;"/>
<stop offset="0.222" style="stop-color:rgb(0%,0%,0%);stop-opacity:0.275;"/>
<stop offset="1" style="stop-color:rgb(0%,0%,0%);stop-opacity:0;"/>
</radialGradient>
<radialGradient id="radial1" gradientUnits="userSpaceOnUse" cx="450.908997" cy="189.578995" fx="450.908997" fy="189.578995" r="21.167" gradientTransform="matrix(0,0.039065,0.07032,0,-11.181,-3.76375)">
<stop offset="0" style="stop-color:rgb(0%,0%,0%);stop-opacity:0.314;"/>
<stop offset="0.222" style="stop-color:rgb(0%,0%,0%);stop-opacity:0.275;"/>
<stop offset="1" style="stop-color:rgb(0%,0%,0%);stop-opacity:0;"/>
</radialGradient>
<radialGradient id="radial2" gradientUnits="userSpaceOnUse" cx="450.908997" cy="189.578995" fx="450.908997" fy="189.578995" r="21.167" gradientTransform="matrix(0,-0.039065,0.07032,0,-11.181,31.797501)">
<stop offset="0" style="stop-color:rgb(0%,0%,0%);stop-opacity:0.314;"/>
<stop offset="0.222" style="stop-color:rgb(0%,0%,0%);stop-opacity:0.275;"/>
<stop offset="1" style="stop-color:rgb(0%,0%,0%);stop-opacity:0;"/>
</radialGradient>
<radialGradient id="radial3" gradientUnits="userSpaceOnUse" cx="450.908997" cy="189.578995" fx="450.908997" fy="189.578995" r="21.167" gradientTransform="matrix(0,0.039065,-0.07032,0,27.057501,-3.76375)">
<stop offset="0" style="stop-color:rgb(0%,0%,0%);stop-opacity:0.314;"/>
<stop offset="0.222" style="stop-color:rgb(0%,0%,0%);stop-opacity:0.275;"/>
<stop offset="1" style="stop-color:rgb(0%,0%,0%);stop-opacity:0;"/>
</radialGradient>
<linearGradient id="linear1" gradientUnits="userSpaceOnUse" x1="960" y1="255.117996" x2="960" y2="1215.118042" gradientTransform="matrix(0.00827,0,0,0.00827,0,0)">
<stop offset="0" style="stop-color:rgb(34.509805%,34.509805%,34.509805%);stop-opacity:0;"/>
<stop offset="1" style="stop-color:rgb(98.039216%,98.039216%,98.039216%);stop-opacity:0.196;"/>
</linearGradient>
<linearGradient id="linear2" gradientUnits="userSpaceOnUse" x1="960" y1="1695.118042" x2="960" y2="855.117981" gradientTransform="matrix(0.00827,0,0,0.00827,0,0)">
<stop offset="0" style="stop-color:rgb(34.509805%,34.509805%,34.509805%);stop-opacity:0;"/>
<stop offset="1" style="stop-color:rgb(98.039216%,98.039216%,98.039216%);stop-opacity:0.196;"/>
</linearGradient>
</defs>
<g id="surface1">
<path style=" stroke:none;fill-rule:nonzero;fill:url(#linear0);" d="M 1.984375 14.015625 L 13.890625 14.015625 L 13.890625 14.679688 L 1.984375 14.679688 Z M 1.984375 14.015625 "/>
<path style=" stroke:none;fill-rule:nonzero;fill:url(#radial0);" d="M 13.890625 14.015625 L 15.214844 14.015625 L 15.214844 13.355469 L 13.890625 13.355469 Z M 13.890625 14.015625 "/>
<path style=" stroke:none;fill-rule:nonzero;fill:url(#radial1);" d="M 1.984375 14.015625 L 0.660156 14.015625 L 0.660156 14.679688 L 1.984375 14.679688 Z M 1.984375 14.015625 "/>
<path style=" stroke:none;fill-rule:nonzero;fill:url(#radial2);" d="M 1.984375 14.015625 L 0.660156 14.015625 L 0.660156 13.355469 L 1.984375 13.355469 Z M 1.984375 14.015625 "/>
<path style=" stroke:none;fill-rule:nonzero;fill:url(#radial3);" d="M 13.890625 14.015625 L 15.214844 14.015625 L 15.214844 14.679688 L 13.890625 14.679688 Z M 13.890625 14.015625 "/>
<path style=" stroke:none;fill-rule:nonzero;fill:rgb(11.764706%,53.333336%,89.803922%);fill-opacity:1;" d="M 3.640625 2.109375 C 3.464844 2.109375 3.292969 2.179688 3.167969 2.300781 C 3.046875 2.425781 2.976562 2.597656 2.976562 2.773438 L 2.976562 3.433594 L 1.324219 3.433594 C 1.148438 3.433594 0.980469 3.5 0.855469 3.625 C 0.730469 3.75 0.660156 3.917969 0.660156 4.09375 L 0.660156 9.386719 C 0.660156 9.5625 0.730469 9.730469 0.855469 9.855469 C 0.980469 9.980469 1.148438 10.046875 1.324219 10.046875 L 14.554688 10.046875 C 14.730469 10.046875 14.898438 9.980469 15.023438 9.855469 C 15.144531 9.730469 15.214844 9.5625 15.214844 9.386719 L 15.214844 4.09375 C 15.214844 3.925781 15.152344 3.773438 15.050781 3.65625 L 15.050781 2.769531 C 15.050781 2.59375 14.980469 2.425781 14.855469 2.300781 C 14.730469 2.179688 14.5625 2.109375 14.386719 2.109375 Z M 3.640625 2.109375 "/>
<path style=" stroke:none;fill-rule:nonzero;fill:url(#linear1);" d="M 3.640625 2.109375 C 3.464844 2.109375 3.292969 2.179688 3.167969 2.300781 C 3.046875 2.425781 2.976562 2.597656 2.976562 2.773438 L 2.976562 3.433594 L 1.324219 3.433594 C 1.148438 3.433594 0.980469 3.5 0.855469 3.625 C 0.730469 3.75 0.660156 3.917969 0.660156 4.09375 L 0.660156 9.386719 C 0.660156 9.5625 0.730469 9.730469 0.855469 9.855469 C 0.980469 9.980469 1.148438 10.046875 1.324219 10.046875 L 14.554688 10.046875 C 14.730469 10.046875 14.898438 9.980469 15.023438 9.855469 C 15.144531 9.730469 15.214844 9.5625 15.214844 9.386719 L 15.214844 4.09375 C 15.214844 3.925781 15.152344 3.773438 15.050781 3.65625 L 15.050781 2.769531 C 15.050781 2.59375 14.980469 2.425781 14.855469 2.300781 C 14.730469 2.179688 14.5625 2.109375 14.386719 2.109375 Z M 3.640625 2.109375 "/>
<path style=" stroke:none;fill-rule:nonzero;fill:rgb(90.196079%,90.196079%,90.196079%);fill-opacity:0.588;" d="M 3.640625 2.109375 C 3.464844 2.109375 3.292969 2.179688 3.167969 2.300781 C 3.046875 2.425781 2.976562 2.597656 2.976562 2.773438 L 2.976562 2.851562 C 2.976562 2.679688 3.046875 2.507812 3.171875 2.386719 C 3.292969 2.261719 3.464844 2.191406 3.640625 2.191406 L 14.386719 2.191406 C 14.5625 2.191406 14.730469 2.261719 14.855469 2.386719 C 14.980469 2.507812 15.050781 2.679688 15.050781 2.851562 L 15.050781 2.773438 C 15.050781 2.597656 14.980469 2.425781 14.855469 2.300781 C 14.730469 2.179688 14.5625 2.109375 14.386719 2.109375 Z M 3.640625 2.109375 "/>
<path style=" stroke:none;fill-rule:nonzero;fill:rgb(12.941177%,12.941177%,12.941177%);fill-opacity:1;" d="M 3.640625 2.0625 C 3.246094 2.0625 2.929688 2.378906 2.929688 2.773438 L 2.929688 3.386719 L 1.324219 3.386719 C 1.136719 3.386719 0.953125 3.460938 0.820312 3.59375 C 0.6875 3.726562 0.613281 3.90625 0.613281 4.09375 L 0.613281 9.386719 C 0.613281 9.574219 0.6875 9.753906 0.820312 9.886719 C 0.953125 10.019531 1.136719 10.09375 1.324219 10.09375 L 14.554688 10.09375 C 14.742188 10.09375 14.921875 10.019531 15.054688 9.886719 C 15.1875 9.753906 15.261719 9.574219 15.261719 9.386719 L 15.261719 4.09375 C 15.261719 3.929688 15.203125 3.765625 15.097656 3.640625 L 15.097656 2.773438 C 15.097656 2.378906 14.777344 2.0625 14.386719 2.0625 Z M 3.640625 2.15625 L 14.386719 2.15625 C 14.550781 2.15625 14.707031 2.21875 14.824219 2.335938 C 14.9375 2.449219 15.003906 2.609375 15.003906 2.769531 L 15.003906 3.671875 L 15.015625 3.6875 C 15.109375 3.796875 15.167969 3.9375 15.167969 4.09375 L 15.167969 9.386719 C 15.167969 9.550781 15.105469 9.707031 14.988281 9.820312 C 14.875 9.9375 14.714844 10 14.554688 10 L 1.324219 10 C 1.160156 10 1.003906 9.9375 0.886719 9.820312 C 0.773438 9.707031 0.707031 9.550781 0.707031 9.386719 L 0.707031 4.09375 C 0.707031 3.929688 0.773438 3.773438 0.886719 3.660156 C 1.003906 3.542969 1.160156 3.480469 1.324219 3.480469 L 3.023438 3.480469 L 3.023438 2.773438 C 3.023438 2.609375 3.085938 2.449219 3.203125 2.335938 C 3.316406 2.21875 3.476562 2.15625 3.640625 2.15625 Z M 3.640625 2.15625 "/>
<path style=" stroke:none;fill-rule:nonzero;fill:rgb(25.882354%,64.705884%,96.078432%);fill-opacity:1;" d="M 1.324219 6.410156 C 1.148438 6.410156 0.980469 6.480469 0.855469 6.601562 C 0.730469 6.726562 0.660156 6.894531 0.660156 7.070312 L 0.660156 13.355469 C 0.660156 13.53125 0.730469 13.699219 0.855469 13.824219 C 0.980469 13.949219 1.148438 14.015625 1.324219 14.015625 L 14.554688 14.015625 C 14.730469 14.015625 14.898438 13.949219 15.023438 13.824219 C 15.144531 13.699219 15.214844 13.53125 15.214844 13.355469 L 15.214844 7.070312 L 6.285156 7.070312 C 6.109375 7.070312 5.941406 7 5.816406 6.878906 C 5.691406 6.753906 5.621094 6.585938 5.621094 6.410156 Z M 1.324219 6.410156 "/>
<path style=" stroke:none;fill-rule:nonzero;fill:rgb(0%,0%,0%);fill-opacity:0.196;" d="M 1.324219 14.015625 C 1.148438 14.015625 0.980469 13.949219 0.855469 13.824219 C 0.730469 13.699219 0.660156 13.53125 0.660156 13.355469 L 0.660156 13.273438 C 0.660156 13.449219 0.730469 13.617188 0.855469 13.742188 C 0.980469 13.863281 1.148438 13.933594 1.324219 13.933594 L 14.554688 13.933594 C 14.730469 13.933594 14.898438 13.863281 15.023438 13.742188 C 15.144531 13.617188 15.214844 13.449219 15.214844 13.273438 L 15.214844 13.355469 C 15.214844 13.53125 15.144531 13.699219 15.023438 13.824219 C 14.898438 13.949219 14.730469 14.015625 14.554688 14.015625 Z M 1.324219 14.015625 "/>
<path style=" stroke:none;fill-rule:nonzero;fill:rgb(90.196079%,90.196079%,90.196079%);fill-opacity:0.937;" d="M 1.324219 6.410156 C 1.148438 6.410156 0.980469 6.480469 0.855469 6.601562 C 0.730469 6.726562 0.660156 6.894531 0.660156 7.070312 L 0.660156 7.152344 C 0.660156 6.976562 0.730469 6.808594 0.855469 6.683594 C 0.980469 6.5625 1.148438 6.492188 1.324219 6.492188 L 5.625 6.492188 L 5.625 6.410156 Z M 1.324219 6.410156 "/>
<path style=" stroke:none;fill-rule:nonzero;fill:rgb(90.196079%,90.196079%,90.196079%);fill-opacity:0.937;" d="M 6.285156 7.152344 C 6.109375 7.152344 5.941406 7.085938 5.816406 6.960938 C 5.691406 6.835938 5.621094 6.667969 5.621094 6.492188 L 5.621094 6.410156 C 5.621094 6.585938 5.691406 6.753906 5.816406 6.878906 C 5.941406 7 6.109375 7.070312 6.285156 7.070312 L 15.253906 7.070312 L 15.253906 7.152344 Z M 6.285156 7.152344 "/>
<path style=" stroke:none;fill-rule:nonzero;fill:url(#linear2);" d="M 1.324219 6.410156 C 1.148438 6.410156 0.980469 6.480469 0.855469 6.601562 C 0.730469 6.726562 0.660156 6.894531 0.660156 7.070312 L 0.660156 13.355469 C 0.660156 13.53125 0.730469 13.699219 0.855469 13.824219 C 0.980469 13.949219 1.148438 14.015625 1.324219 14.015625 L 14.554688 14.015625 C 14.730469 14.015625 14.898438 13.949219 15.023438 13.824219 C 15.144531 13.699219 15.214844 13.53125 15.214844 13.355469 L 15.214844 7.070312 L 6.285156 7.070312 C 6.109375 7.070312 5.941406 7 5.816406 6.878906 C 5.691406 6.753906 5.621094 6.585938 5.621094 6.410156 Z M 1.324219 6.410156 "/>
<path style=" stroke:none;fill-rule:nonzero;fill:rgb(12.941177%,12.941177%,12.941177%);fill-opacity:1;" d="M 1.324219 6.363281 C 0.933594 6.363281 0.613281 6.679688 0.613281 7.070312 L 0.613281 13.355469 C 0.613281 13.542969 0.6875 13.722656 0.820312 13.855469 C 0.953125 13.988281 1.136719 14.0625 1.324219 14.0625 L 14.554688 14.0625 C 14.742188 14.0625 14.921875 13.988281 15.054688 13.855469 C 15.1875 13.722656 15.261719 13.542969 15.261719 13.355469 L 15.261719 7.023438 L 6.285156 7.023438 C 6.121094 7.023438 5.964844 6.960938 5.847656 6.84375 C 5.734375 6.730469 5.667969 6.574219 5.671875 6.410156 L 5.671875 6.363281 Z M 1.324219 6.457031 L 5.578125 6.457031 C 5.601562 6.828125 5.910156 7.117188 6.285156 7.117188 L 15.167969 7.117188 L 15.167969 13.355469 C 15.167969 13.519531 15.105469 13.675781 14.988281 13.789062 C 14.875 13.90625 14.71875 13.96875 14.554688 13.96875 L 1.324219 13.96875 C 1.160156 13.96875 1.003906 13.90625 0.886719 13.789062 C 0.773438 13.675781 0.707031 13.519531 0.707031 13.355469 L 0.707031 7.070312 C 0.707031 6.90625 0.773438 6.75 0.886719 6.636719 C 1.003906 6.519531 1.160156 6.457031 1.324219 6.457031 Z M 1.324219 6.457031 "/>
</g>
</svg>

<svg xmlns="http://www.w3.org/2000/svg" width="16pt" height="16pt" viewBox="0 0 16 16"><defs><linearGradient id="a" gradientUnits="userSpaceOnUse" x1="254" y1="233.5" x2="254" y2="254.667" gradientTransform="matrix(.03125 0 0 .03125 0 6.72)"><stop offset="0" stop-opacity=".275"/><stop offset="1" stop-opacity="0"/></linearGradient><radialGradient id="b" gradientUnits="userSpaceOnUse" cx="450.909" cy="189.579" fx="450.909" fy="189.579" r="21.167" gradientTransform="matrix(0 -.03907 -.07032 0 27.058 31.798)"><stop offset="0" stop-opacity=".314"/><stop offset=".222" stop-opacity=".275"/><stop offset="1" stop-opacity="0"/></radialGradient><radialGradient id="c" gradientUnits="userSpaceOnUse" cx="450.909" cy="189.579" fx="450.909" fy="189.579" r="21.167" gradientTransform="matrix(0 .03907 .07032 0 -11.181 -3.764)"><stop offset="0" stop-opacity=".314"/><stop offset=".222" stop-opacity=".275"/><stop offset="1" stop-opacity="0"/></radialGradient><radialGradient id="d" gradientUnits="userSpaceOnUse" cx="450.909" cy="189.579" fx="450.909" fy="189.579" r="21.167" gradientTransform="matrix(0 -.03907 .07032 0 -11.181 31.798)"><stop offset="0" stop-opacity=".314"/><stop offset=".222" stop-opacity=".275"/><stop offset="1" stop-opacity="0"/></radialGradient><radialGradient id="e" gradientUnits="userSpaceOnUse" cx="450.909" cy="189.579" fx="450.909" fy="189.579" r="21.167" gradientTransform="matrix(0 .03907 -.07032 0 27.058 -3.764)"><stop offset="0" stop-opacity=".314"/><stop offset=".222" stop-opacity=".275"/><stop offset="1" stop-opacity="0"/></radialGradient><linearGradient id="f" gradientUnits="userSpaceOnUse" x1="960" y1="255.118" x2="960" y2="1215.118" gradientTransform="rotate(.882) scale(.00827)"><stop offset="0" stop-color="#585858" stop-opacity="0"/><stop offset="1" stop-color="#fafafa" stop-opacity=".196"/></linearGradient><linearGradient id="g" gradientUnits="userSpaceOnUse" x1="960" y1="1695.118" x2="960" y2="855.118" gradientTransform="rotate(.882) scale(.00827)"><stop offset="0" stop-color="#585858" stop-opacity="0"/><stop offset="1" stop-color="#fafafa" stop-opacity=".196"/></linearGradient></defs><path d="M1.984 14.016h11.907v.664H1.984zm0 0" fill="url(#a)"/><path d="M13.89 14.016h1.325v-.66H13.89zm0 0" fill="url(#b)"/><path d="M1.984 14.016H.66v.664h1.324zm0 0" fill="url(#c)"/><path d="M1.984 14.016H.66v-.66h1.324zm0 0" fill="url(#d)"/><path d="M13.89 14.016h1.325v.664H13.89zm0 0" fill="url(#e)"/><path d="M3.637 2.11a.662.662 0 0 0-.66.66v.664H1.324a.66.66 0 0 0-.664.66v5.293c0 .367.297.66.664.66h13.23c.368 0 .66-.293.66-.66V4.094a.665.665 0 0 0-.163-.438V2.77a.663.663 0 0 0-.664-.66zm0 0" fill="#1e88e5"/><path d="M3.637 2.11a.662.662 0 0 0-.66.66v.664H1.324a.66.66 0 0 0-.664.66v5.293c0 .367.297.66.664.66h13.23c.368 0 .66-.293.66-.66V4.094a.665.665 0 0 0-.163-.438V2.77a.663.663 0 0 0-.664-.66zm0 0" fill="url(#f)"/><path d="M3.637 2.11a.662.662 0 0 0-.66.66v.085c0-.367.296-.664.66-.664h10.75c.367 0 .664.297.664.664V2.77a.663.663 0 0 0-.664-.66zm0 0" fill="#e6e6e6" fill-opacity=".588"/><path d="M3.637 2.063a.707.707 0 0 0-.707.707v.617H1.324a.708.708 0 0 0-.71.707v5.293c0 .39.316.707.71.707h13.23c.391 0 .708-.317.708-.707V4.094a.707.707 0 0 0-.164-.453V2.77a.708.708 0 0 0-.711-.708zm0 .093h10.75c.343 0 .617.274.617.614v.902l.012.015c.093.11.152.25.152.407v5.293c0 .34-.273.613-.613.613H1.325a.613.613 0 0 1-.618-.613V4.094c0-.34.273-.614.617-.614h1.7v-.71c0-.34.273-.614.613-.614zm0 0" fill="#212121"/><path d="M1.324 6.41a.66.66 0 0 0-.664.66v6.285c0 .368.297.66.664.66h13.23c.368 0 .66-.292.66-.66V7.07H6.286a.66.66 0 0 1-.664-.66zm0 0" fill="#42a5f5"/><path d="M1.324 14.016a.66.66 0 0 1-.664-.66v-.083c0 .368.297.66.664.66h13.23c.368 0 .66-.292.66-.66v.082c0 .368-.292.66-.66.66zm0 0" fill-opacity=".196"/><path d="M1.324 6.41a.66.66 0 0 0-.664.66v.082c0-.363.297-.66.664-.66h4.297V6.41zm0 0" fill="#e6e6e6" fill-opacity=".937"/><path d="M6.285 7.152a.66.66 0 0 1-.664-.66V6.41c0 .367.297.66.664.66h8.973v.082zm0 0" fill="#e6e6e6" fill-opacity=".937"/><path d="M1.324 6.41a.66.66 0 0 0-.664.66v6.285c0 .368.297.66.664.66h13.23c.368 0 .66-.292.66-.66V7.07H6.286a.66.66 0 0 1-.664-.66zm0 0" fill="url(#g)"/><path d="M1.324 6.363a.708.708 0 0 0-.71.707v6.285c0 .391.316.707.71.707h13.23c.391 0 .708-.316.708-.707V7.023H6.285a.613.613 0 0 1-.617-.613v-.047zm0 .094h4.254c.024.367.332.66.707.66h8.883v6.238c0 .34-.273.614-.613.614H1.325a.613.613 0 0 1-.618-.614V7.07c0-.34.273-.613.617-.613zm0 0" fill="#212121"/></svg>
